X: 25920
T: Maudabawn Chapel
R: reel
M: 4/4
K: Gmajor
|:g3 d e2 dB|GABd egdB|GABd gaba|gabg ea a2|
gbag efge|dged B^cde|g2 fa gedB|AcBA GEED:|
|:E2 BE dEBE|Ed^cB AFDF|~E3 F GFGB|AF (3FFF DFAF|
EBBA B3 B|BAGA B^cde|f2 af gfe^c|dBAF GEED:|

